X:1073
T:Ballo Anglese
S:Unknown, photocopy
I:speed 250
M:C
N:fourth part originally in base clef.
K:C
I:part 1
|:B3cd2B2 | c4 A4 | B2c d3c | B3A G4 | B3c d2B2 | c4A4| 
B3c d3c | B3A G4 | B3c d3B | e3d c2 B2 | A2 G2 G2 ^F2 | G4 G2 B2 | A2 G2 c2 A2 |
B3A G2B2 | A2G2 c2A2 | B3A G4 | B3c d3B | e3d c2 B2 A2 G2 G2 ^F2 G4 G4:|
I:part 2 
|:D6 D2 | F4 F4 | D4 F4 | D8 | D6 D2 | F4F4 | 
D4 F4 | D8 | D4 ^F2 G2 | G4 G4 | F2D2 E2D2 | D6 G2 | F2E2 G2 ^F2 |
G4 D2 G2 | F2E2 G2 ^F2 | G4 D4 | D4 ^F2 G2 | G4 G4 | F2 D2 E2 D2 | D4 D4:|
I:part 3
|:B6 G2 | A2B2 c4 | B4A4 | B8| B6 G2 | A2B2 c4 |
B4A4 | B6 B2 | B2G2 A2 B2 | c2 d2 e2 d2 | c2 B2 c2 A2 | B6 d2 | d2B2 e2d2 |
d4 B2d2 | d2B2 e2d2 | d4 B4 | B2G2 A2 B2 | c2 d2 e2 d2 | c2 B2 c2 A2 | B4 B4:|
I:final
|:G6 g2 | F4 F4 | G4 D4 | G8 | G6 G2 | F4F4|
G4 D4 | G8| G4 D2 G2 | C4 C4 | F2G2 C2 D2 | G6 G2 | D2 E2 C2 D2 |
G6 G2 | D2 E2 C2 D2 | G6 G2 | G4 D2 G2 | C4 C4 | F2 G2 C2 D2 | G4 G4:|


